brandFactory_export/3.Masa/Hamburguesa_3Masa.svg

<?xml version="1.0" encoding="UTF-8"?>
<svg width="24px" height="24px" viewBox="0 0 24 24" version="1.1" xmlns="http://www.w3.org/2000/svg" xmlns:xlink="http://www.w3.org/1999/xlink">
    <title>3.Masa/Hamburguesa_3Masa</title>
    <g id="Symbols" stroke="none" stroke-width="1" fill="none" fill-rule="evenodd">
        <g id="3.Masa/Hamburguesa_3Masa" fill="#5CB615" fill-rule="nonzero">
            <path d="M22.0504202,7.0789916 C22.1579832,6.97142857 22.1815126,6.75966387 22.1815126,6.59495798 C22.1815126,6.43361345 22.1579832,6.21512605 22.0504202,6.11092437 C21.9462185,6.00336134 21.7445378,5.98319328 21.589916,5.98319328 L13.3042017,5.98319328 C13.1529412,5.98319328 12.9512605,6.00336134 12.8436975,6.11092437 C12.7394958,6.21512605 12.7159664,6.43361345 12.7159664,6.59495798 C12.7159664,6.75966387 12.7394958,6.97478992 12.8436975,7.0789916 C12.9478992,7.18319328 13.1529412,7.20336134 13.3042017,7.20336134 L21.589916,7.20336134 C21.7142857,7.20336134 21.9394958,7.18655462 22.0504202,7.0789916 Z M23.0722689,5.00504202 C23.3411765,5.27058824 23.6571429,5.76470588 23.6571429,6.59495798 C23.6571429,7.43193277 23.3411765,7.92268908 23.0722689,8.18487395 C22.9579832,8.29915966 22.8235294,8.39327731 22.6823529,8.47058824 C22.6487395,9.12605042 22.5781513,10.6991597 22.3966387,14.5546218 C22.2857143,16.9008403 22.1915966,19.0016807 22.1882353,19.092437 C22.1714286,21.1394958 21.8184874,23.1092437 19.6033613,23.6 C19.5327731,23.6168067 19.4689076,23.6235294 19.4016807,23.6235294 L15.7781513,23.6235294 C16.6689076,23.0823529 16.9277311,22.1714286 17.2168067,21.1294118 L17.2504202,21.0084034 C17.6840336,20.8672269 18.0638655,20.6487395 18.3731092,20.3428571 C18.9680672,19.7478992 19.2739496,18.907563 19.2739496,17.8420168 C19.2739496,16.7764706 18.9714286,15.9361345 18.3764706,15.3411765 C18.1613445,15.1260504 17.902521,14.9647059 17.6302521,14.8302521 C17.6033613,14.6689076 17.5630252,14.5277311 17.5361345,14.3764706 C17.3546218,13.4352941 17.0857143,12.6386555 16.7193277,11.9831933 C15.8689076,10.4571429 14.5109244,9.68403361 12.5109244,9.68403361 L12.2554622,9.68403361 C12.2319328,9.1092437 12.2184874,8.72268908 12.2084034,8.47394958 C12.0672269,8.39663866 11.9361345,8.30252101 11.8184874,8.18823529 C11.5529412,7.92268908 11.2369748,7.43529412 11.2369748,6.60168067 C11.2369748,5.77142857 11.5529412,5.28067227 11.8151261,5.01512605 C12.0705882,4.75966387 12.5344538,4.45714286 13.3008403,4.45714286 L15.6268908,4.45714286 L15.6268908,1.89243697 C15.6268908,0.853781513 16.4436975,0.00672268908 17.4420168,0.00672268908 C18.4436975,0.00672268908 19.2571429,0.850420168 19.2571429,1.89243697 L19.2571429,4.45714286 C19.2571429,4.45714286 21.2571429,4.44033613 21.9159664,4.46386555 C21.9697479,4.46722689 22.0268908,4.47058824 22.0638655,4.47394958 C22.5579832,4.54453782 22.8773109,4.80672269 23.0722689,5.00504202 L23.0722689,5.00504202 Z M13.9159664,14.7092437 L15.005042,14.7092437 C14.7831933,13.6302521 14.4067227,12.9176471 13.8352941,12.4773109 C13.4420168,12.1747899 12.9478992,12.0033613 12.3361345,11.9428571 C12.1714286,11.9260504 12.0033613,11.912605 11.8151261,11.912605 C11.7815126,11.912605 11.7478992,11.9159664 11.7142857,11.9193277 C11.6033613,11.9193277 11.4991597,11.9226891 11.3915966,11.9327731 L6.76302521,11.9361345 C6.38655462,11.912605 6.14453782,11.912605 5.87226891,11.9327731 L5.78151261,11.9327731 C5.75462185,11.9394958 5.72436975,11.9462185 5.69411765,11.9495798 C4.46386555,12.087395 3.54621849,12.6319328 3.10252101,14.7092437 L13.9159664,14.7092437 Z M14.4302521,21.4352941 C14.497479,21.2907563 14.5546218,21.112605 14.6218487,20.8907563 L3.51596639,20.8907563 C3.86218487,21.8857143 4.18487395,22.1109244 5.39495798,22.1109244 C5.55294118,22.1109244 6.55798319,22.1008403 6.71932773,22.0941176 L11.3445378,22.0907563 C11.4823529,22.097479 11.5966387,22.1008403 11.7109244,22.1008403 C11.8957983,22.1042017 12.0672269,22.1042017 12.2386555,22.0907563 L13.0991597,22.0739496 L13.3781513,22.0705882 C13.9932773,22.0067227 14.2386555,21.8722689 14.4302521,21.4352941 L14.4302521,21.4352941 Z M2.65210084,17.7277311 C3.23697479,18.3327731 3.86890756,18.6386555 4.53445378,18.6386555 L4.57815126,18.6386555 C5.22689076,18.6252101 5.8487395,18.3159664 6.41680672,17.7277311 C6.86722689,17.2605042 7.1394958,16.7630252 7.24369748,16.2420168 L1.82184874,16.2420168 C1.92605042,16.7630252 2.20504202,17.2605042 2.65210084,17.7277311 Z M16.2016807,20.7394958 L16.1714286,20.8504202 C16.0470588,21.3008403 15.9226891,21.7277311 15.7445378,22.1109244 C15.6605042,22.292437 15.5563025,22.4571429 15.4386555,22.6117647 C15.3277311,22.7596639 15.1932773,22.887395 15.0453782,23.0084034 C15.0184874,23.0319328 14.994958,23.0521008 14.9647059,23.0722689 C14.8033613,23.1932773 14.6184874,23.297479 14.3966387,23.3815126 C14.1310924,23.4823529 13.8386555,23.5798319 13.4722689,23.6 C13.1764706,23.6201681 12.2957983,23.6235294 12.2957983,23.6235294 L11.6806723,23.6235294 L11.3008403,23.6201681 L6.7697479,23.6235294 L5.39159664,23.6235294 C2.91764706,23.6235294 2.40336134,22.3865546 1.91596639,20.7462185 C1.50588235,20.6151261 1.15294118,20.4134454 0.860504202,20.1243697 C0.309243697,19.5731092 0.0302521008,18.7966387 0.0302521008,17.8117647 C0.0302521008,16.8268908 0.309243697,16.0504202 0.857142857,15.4991597 C1.05546218,15.297479 1.29411765,15.1495798 1.54957983,15.0218487 C1.83193277,13.1495798 2.58151261,10.8504202 5.35798319,10.4470588 C5.43529412,10.4168067 5.51596639,10.4 5.60336134,10.4 L5.81512605,10.4 C6.04705882,10.3798319 6.47394958,10.3764706 6.81344538,10.4033613 L11.3344538,10.4 C11.4252101,10.3932773 11.5630252,10.3865546 11.707563,10.3831933 C11.7411765,10.3831933 11.7714286,10.3798319 11.8084034,10.3798319 C11.9731092,10.3798319 12.1176471,10.4033613 12.2722689,10.4134454 C12.5983193,10.4336134 12.9008403,10.4840336 13.189916,10.5478992 C13.3882353,10.5915966 13.5831933,10.6420168 13.7613445,10.7092437 C14.2722689,10.9042017 14.7159664,11.189916 15.0857143,11.5764706 C15.297479,11.7915966 15.4789916,12.0470588 15.6504202,12.3260504 C15.7579832,12.5042017 15.8554622,12.6957983 15.9462185,12.9008403 C15.9966387,13.0151261 16.0403361,13.1394958 16.087395,13.2605042 C16.1445378,13.4184874 16.2016807,13.5798319 16.2521008,13.7512605 C16.2823529,13.8554622 16.3159664,13.9630252 16.3462185,14.0773109 C16.4201681,14.3764706 16.487395,14.6857143 16.5411765,15.0218487 C16.7966387,15.1462185 17.0352941,15.297479 17.2336134,15.4957983 C17.3579832,15.6201681 17.4621849,15.7579832 17.5563025,15.9058824 C17.8890756,16.410084 18.0605042,17.0453782 18.0605042,17.8084034 C18.0605042,18.7932773 17.7815126,19.5731092 17.2302521,20.1210084 C16.9546218,20.4067227 16.605042,20.6084034 16.2016807,20.7394958 Z" id="Hamburguesa_3Masa"></path>
        </g>
    </g>
</svg>

<svg width="24" height="24" viewBox="0 0 24 24" xmlns="http://www.w3.org/2000/svg"><path d="M22.05 7.079c.108-.108.132-.32.132-.484 0-.161-.024-.38-.132-.484-.104-.108-.305-.128-.46-.128h-8.286c-.151 0-.353.02-.46.128-.105.104-.128.323-.128.484 0 .165.023.38.128.484.104.104.309.124.46.124h8.286c.124 0 .35-.016.46-.124zm1.022-2.074c.27.266.585.76.585 1.59 0 .837-.316 1.328-.585 1.59a1.712 1.712 0 01-.39.286c-.033.655-.104 2.228-.285 6.084-.111 2.346-.205 4.447-.209 4.537-.017 2.047-.37 4.017-2.585 4.508a.846.846 0 01-.201.024h-3.624c.89-.542 1.15-1.453 1.439-2.495l.033-.12c.434-.142.814-.36 1.123-.666.595-.595.9-1.435.9-2.501 0-1.066-.302-1.906-.897-2.5a2.777 2.777 0 00-.746-.512c-.027-.161-.067-.302-.094-.454-.181-.94-.45-1.737-.817-2.393-.85-1.526-2.208-2.299-4.208-2.299h-.256l-.047-1.21a1.79 1.79 0 01-.39-.286c-.265-.265-.581-.753-.581-1.586 0-.83.316-1.321.578-1.587.256-.255.72-.558 1.486-.558h2.326V1.892c0-1.038.817-1.885 1.815-1.885 1.002 0 1.815.843 1.815 1.885v2.565s2-.017 2.659.007l.148.01c.494.07.813.333 1.008.531zm-9.156 9.704h1.089c-.222-1.079-.598-1.791-1.17-2.232-.393-.302-.887-.474-1.499-.534a5.002 5.002 0 00-.52-.03c-.034 0-.068.003-.102.006-.11 0-.215.004-.322.014l-4.629.003a6.069 6.069 0 00-.89-.003h-.091a.671.671 0 01-.088.017c-1.23.137-2.148.682-2.591 2.76h10.813zm.514 6.726c.067-.144.125-.322.192-.544H3.516c.346.995.669 1.22 1.879 1.22.158 0 1.163-.01 1.324-.017l4.626-.003c.137.006.252.01.366.01.185.003.356.003.528-.01l.86-.017.28-.003c.614-.064.86-.199 1.051-.636zM2.652 17.728c.585.605 1.217.91 1.882.91h.044c.649-.013 1.27-.322 1.839-.91.45-.467.722-.965.827-1.486H1.822c.104.521.383 1.019.83 1.486zm13.55 3.011l-.03.111c-.125.45-.25.878-.427 1.26a2.696 2.696 0 01-.306.502 2.31 2.31 0 01-.394.396 2.279 2.279 0 01-.649.373c-.265.101-.557.199-.924.219-.296.02-1.176.024-1.176.024h-.615l-.38-.004-4.531.004H5.392c-2.474 0-2.989-1.237-3.476-2.878a2.59 2.59 0 01-1.055-.622c-.552-.55-.83-1.327-.83-2.312 0-.985.278-1.762.826-2.313.198-.202.437-.35.693-.477.282-1.872 1.032-4.172 3.808-4.575a.664.664 0 01.245-.047h.212c.232-.02.659-.024.998.003l4.521-.003c.091-.007.229-.013.374-.017.033 0 .063-.003.1-.003.165 0 .31.023.464.033.326.02.629.071.918.135a3.56 3.56 0 011.896 1.029c.211.215.393.47.564.75.108.177.205.369.296.574.05.114.094.238.141.36.058.157.115.319.165.49.03.104.064.212.094.326.074.3.141.609.195.945.256.124.494.275.693.474.124.124.228.262.322.41.333.504.505 1.14.505 1.902 0 .985-.28 1.765-.83 2.313a2.457 2.457 0 01-1.03.618z" fill="#5CB615" fill-rule="nonzero"/></svg>
